X:9
T:Doon the Aisle
C:Bob Massie
H:1999
N:Written for my pal Neil Thomson's wedding to Linda.
M:4/4
L:1/4
Q:1/4=120    %Tempo
K:A
z2 e3/2d/ |c3 z/ d/ |e3/2A/ B/c3/2 |E3/2F/ A/B3/2 |
c2 B3/2A/ |F3/2G/ A/B3/2 |c3/2A/ e3/2c/ |B4 |
z2 e3/2d/ |c3 z/ d/ |e3/2A/ B/c3/2 |E3/2F/ A/B3/2 |
c2 B3/2A/ |d3/2c/ d/f3/2 |e3/2c/ B/c3/2 |A4 |
z2 e3/2d/ |c3 z/ d/ |e3/2A/ B/c3/2 |E3/2F/ A/B3/2 |
c2 B3/2A/ |F3/2G/ A/B3/2 |c3/2A/ e3/2c/ |B4 |
z2 e3/2d/ |c3 z/ d/ |e3/2A/ B/c3/2 |E3/2F/ A/B3/2 |
c2 B3/2A/ |d3/2c/ d/f3/2 |e3/2c/ B/c3/2 |A4 |
z2 c3/2d/ |e3 z/ c/ |A3 z/ G/ |F/G3/2 A/F3/2 |
E2 A3/2B/ |c/A3/2 c/e3/2 |d3/2c/ B3/2A/ |B4 |
z2 c3/2d/ |e3 z/ c/ |A3 z/ G/ |F/A3/2 G/F3/2 |
E2 A3/2B/ |c/e3/2 c/A3/2 |d3/2B/ G3/2E/ |A4 |
z2 c3/2d/ |e3 z/ c/ |A3 z/ G/ |F/G3/2 A/F3/2 |
E2 A3/2B/ |c/A3/2 c/e3/2 |d3/2c/ B3/2A/ |B4 |
z2 c3/2d/ |e3 z/ c/ |A3 z/ G/ |F/A3/2 G/F3/2 |
E2 A3/2B/ |c/e3/2 c/A3/2 |d3/2B/ G3/2E/ |A4 |]
